packages/foundations/assets/icons/functional/images/accessibility/support_dog_12.svg

<svg width="12" height="12" viewBox="0 0 12 12" fill="none" xmlns="http://www.w3.org/2000/svg">
<g clip-path="url(#clip0_231_14)">
<path fill-rule="evenodd" clip-rule="evenodd" d="M10.3894 3.03809L8.72398 2.48181L7.62427 1.38209C7.54655 1.30363 7.44864 1.24821 7.34137 1.22197C7.2341 1.19573 7.12166 1.19969 7.01651 1.23341C6.91135 1.26713 6.81757 1.3293 6.74557 1.41303C6.67357 1.49676 6.62615 1.59879 6.60855 1.70781L6.11484 4.67181L2.82341 1.38209C2.76833 1.32364 2.70207 1.27685 2.62856 1.24448C2.55506 1.21212 2.47581 1.19484 2.3955 1.19367C2.31519 1.1925 2.23547 1.20746 2.16106 1.23768C2.08664 1.26789 2.01905 1.31273 1.96229 1.36955C1.90552 1.42637 1.86075 1.49401 1.83061 1.56846C1.80047 1.6429 1.78559 1.72264 1.78684 1.80295C1.78809 1.88325 1.80545 1.96249 1.83789 2.03596C1.87033 2.10943 1.91719 2.17564 1.9757 2.23066L4.55141 4.80638H2.50712C2.47284 4.75238 2.39998 4.59381 2.39998 4.20638C2.39998 4.04725 2.33677 3.89464 2.22425 3.78211C2.11172 3.66959 1.95911 3.60638 1.79998 3.60638C1.64085 3.60638 1.48824 3.66959 1.37572 3.78211C1.2632 3.89464 1.19998 4.04725 1.19998 4.20638C1.19998 5.11495 1.49998 5.56409 1.79998 5.78609V9.30638C1.79998 10.1335 2.47284 10.8064 3.29998 10.8064C4.12712 10.8064 4.79998 10.1335 4.79998 9.30638V8.63952C5.17455 8.71838 5.62541 8.71838 5.99998 8.63952V9.30638C5.99998 10.1335 6.67284 10.8064 7.49998 10.8064C8.32712 10.8064 8.99998 10.1335 8.99998 9.30638V5.93095C9.86655 5.71667 10.8 5.02581 10.8 3.60638C10.8 3.48051 10.7604 3.35783 10.6867 3.2558C10.6129 3.15377 10.5089 3.07759 10.3894 3.03809ZM4.46827 7.26981C4.37673 7.22405 4.27502 7.20246 4.17279 7.2071C4.07056 7.21174 3.97122 7.24245 3.8842 7.2963C3.79719 7.35016 3.7254 7.42538 3.67565 7.51481C3.6259 7.60424 3.59985 7.7049 3.59998 7.80724V9.30724C3.59998 9.3868 3.56837 9.46311 3.51211 9.51937C3.45585 9.57563 3.37955 9.60724 3.29998 9.60724C3.22042 9.60724 3.14411 9.57563 3.08785 9.51937C3.03159 9.46311 2.99998 9.3868 2.99998 9.30724V6.00638H5.39998V7.50638C5.03055 7.50638 4.60112 7.33495 4.46827 7.26895V7.26981ZM7.49998 9.60724C7.42042 9.60724 7.34411 9.57563 7.28785 9.51937C7.23159 9.46311 7.19998 9.3868 7.19998 9.30724V7.80638C7.19975 7.64732 7.13647 7.49484 7.02399 7.38237C6.91152 7.26989 6.75904 7.20661 6.59998 7.20638V6.37667L7.79998 6.97667V9.30638C7.79998 9.38594 7.76837 9.46225 7.71211 9.51851C7.65585 9.57477 7.57955 9.60638 7.49998 9.60638V9.60724ZM8.39998 4.80638C8.24085 4.80638 8.08824 4.86959 7.97572 4.98212C7.8632 5.09464 7.79998 5.24725 7.79998 5.40638V5.63524L7.21884 5.34381L7.60027 3.05524L7.9757 3.43066C8.04175 3.49623 8.12216 3.54553 8.21055 3.57466L9.5477 4.02038C9.34798 4.72924 8.63741 4.80295 8.39998 4.80638Z" fill="#1A1C1F"/>
</g>
<defs>
<clipPath id="clip0_231_14">
<rect width="12" height="12" fill="white"/>
</clipPath>
</defs>
</svg>

<svg xmlns="http://www.w3.org/2000/svg" width="12" height="12" fill="none"><g clip-path="url(#a)"><path fill="#1A1C1F" fill-rule="evenodd" d="m10.39 3.038-1.666-.556-1.1-1.1a.598.598 0 0 0-1.015.326l-.494 2.964-3.292-3.29a.6.6 0 1 0-.847.849L4.55 4.806H2.507c-.034-.054-.107-.212-.107-.6a.6.6 0 0 0-1.2 0c0 .909.3 1.358.6 1.58v3.52c0 .828.673 1.5 1.5 1.5s1.5-.672 1.5-1.5V8.64c.375.078.825.078 1.2 0v.666c0 .828.673 1.5 1.5 1.5s1.5-.672 1.5-1.5V5.931c.867-.214 1.8-.905 1.8-2.325a.6.6 0 0 0-.41-.568M4.467 7.27a.6.6 0 0 0-.868.537v1.5a.3.3 0 0 1-.6 0v-3.3h2.4v1.5c-.37 0-.799-.172-.932-.238M7.5 9.607a.3.3 0 0 1-.3-.3v-1.5a.6.6 0 0 0-.6-.6v-.83l1.2.6v2.33a.3.3 0 0 1-.3.3m.9-4.8a.6.6 0 0 0-.6.6v.228l-.581-.291.381-2.289.376.376a.6.6 0 0 0 .235.144l1.337.445c-.2.71-.91.783-1.148.786" clip-rule="evenodd"/></g><defs><clipPath id="a"><path fill="#fff" d="M0 0h12v12H0z"/></clipPath></defs></svg>
